X:1
T:Bring Your Loving Gifts to Jesus
T:Bring Your Loving Gifts to Jesus
T:William J. C. Thiel
T:Fanny Crosby, 1896
T:Public Domain Courtesy of the Cyber Hymnal™
T:Public Domain Courtesy of the Cyber Hymnal™
C:William J. C. Thiel
Z:Public Domain
Z:Courtesy of the Cyber Hymnal™
%%score 1 2
L:1/8
Q:1/4=100
M:4/4
K:Ab
V:1 treble 
V:2 bass 
V:1
 [Ec]3 [Fd] [Ec]>[=D=B] [Ec]>[_D_B] | [CA]4 [CE]2 z2 | [DB]3 [DB] [CA]2 [DB]2 | [Ec]6 z2 | %4
w: 1.~Bring your lov- ing gifts to|Je- sus,|Will- ing let it|be;|
w: 2.~In the name of Je- sus|on- ly,|Give with lav- ish|hand;|
w: 3.~Aid to spread His ho- ly|Gos- pel,|Send the news a-|broad;|
 [Ec]3 [Fd] [Ec]>[=D=B] [Ec]>[_D_B] | [CA]4 [CE]2 z2 | [DB]3 [CA] [Ec]2 [DB]2 | [CA]6 z2 | %8
w: Once for you His life He|of- fered,|Died on Cal- va-|ry;|
w: Seek your Mas- ter’s cause to|hon- or,|This is His com-|mand;|
w: Tell the world the heav’n- ly|tid- ings—|Win- ning souls for|God;|
 [ce]3 [Ac] [Ac][Ac][Ac][Ac] | [ce]2 [Bd]4 z2 | [Bd]3 [GB] [GB][GB][GB][GB] | [Ac]6 z2 | %12
w: Turn not from His gen- tle|plead- ing,|Tho’ per- haps your store is|small,|
w: Come, oh come, ye sons of|Zi- on,|Bring your off- ering to the|Lord;|
w: Wea- ry not in faith- ful|ser- vice,|Toil- ing on from sun to|sun;|
 [Ec]3 [Fd] [Ec]>[=D=B] [Ec]>[_D_B] | [CA]4 [CE]2 z2 | [DB]3 [CA] [Ec]2 [DB]2 | [CA]6 z2 || %16
w: From His great and won- drous|boun- ty|God pro- vides your|all.|
w: Yield your trea- sure to His|keep- ing,|Ask- ing no re-|ward.|
w: By and by shall Je- sus|whis- per,|“Thou hast no- bly|done.”|
"^Refrain" [Ae]3 [Ac] [Ac][Ac][Ac][Ac] | [Ae]2 [Gd]4 z2 | [Gd]3 [GB] [GB][GB][GB][GB] | [Ac]6 z2 | %20
w: ||||
w: Come with songs of glad re-|joic- ing,|Bring your gift with ear- nest|prayer—|
w: ||||
 [Ec]3 [Fd] [Ec]>[=D=B] [Ec]>[_D_B] | [CA]4 [CE]2 z2 | [DB]3 [CA] [Ec]2 [DB]2 | [CA]6 z2 |] %24
w: ||||
w: Wait- ing for the bless- èd|har- vest,|Fruits of joy to|bear.|
w: ||||
V:2
 A,,2 [E,A,]2 [E,A,]2 [E,A,]2 | A,,2 [E,A,]2 ([E,A,]2 [E,A,]2) | %2
 [E,,E,]2 [E,G,]2 [E,,E,]2 [E,G,]2 | (A,,2 [E,A,]2 [E,A,]2 [E,A,]2) | %4
 A,,2 [E,A,]2 [E,A,]2 [E,A,]2 | [A,,E,]2 [E,A,]2 ([E,A,]2 [E,A,]2) | %6
 [E,,E,]2 [E,G,]2 [E,,E,]2 [E,G,]2 | (A,,2 E,2 [A,,A,]2) z2 | A,,2 [E,A,C]2 [E,A,C]2 [E,A,C]2 | %9
 [E,,E,]2 ([E,G,B,]2 [E,G,B,]2 [E,G,B,]2) | [E,,E,]2 [E,G,D]2 [E,G,D]2 [E,G,D]2 | %11
 (A,,2 [E,A,]2 [E,A,]2 [E,A,]2) | A,,2 [E,A,]2 [E,A,]2 [E,A,]2 | (A,,2 [E,A,]2) ([E,A,]2 [E,A,]2) | %14
 [E,,E,]2 [E,G,]2 [E,,E,]2 [E,G,]2 | (A,,2 E,2 [A,,A,]2) z2 || [A,C]3 [A,E] [A,E][A,E][A,E][A,E] | %17
 [E,C]2 [E,B,]4 z2 | [E,B,]3 [E,E] [E,E][E,E][E,E][E,E] | [A,E]6 z2 | %20
 [A,,A,]3 [A,,A,] [A,,A,]>[A,,A,] [A,,A,]>[A,,A,] | [A,,E,]4 [A,,A,]2 z2 | %22
 [E,G,]3 [E,A,] [E,A,]2 [E,G,]2 | [A,,A,]6 z2 |] %24

